X: 33738
T: Rattigan's
R: reel
M: 4/4
K: Gmajor
e|dg g2 gedg|eaag ageg|f/e/dad bdad|f/e/dad gfed|
BG G2 EGDf|g2 fg edBA|G2BG DGBG|AGFA G2:|

